html/assets/images/dynamic/business-enabler-2.svg

<svg width="72" height="62" viewBox="0 0 72 62" fill="none" xmlns="http://www.w3.org/2000/svg">
<path d="M48.9681 1C52.5017 1 55.3639 3.57432 55.3639 6.75622V9.63431C55.3639 12.8162 52.5017 15.3905 48.9681 15.3905C45.4344 15.3905 42.5723 12.8162 42.5723 9.63431V6.75622C42.5723 3.57432 45.4344 1 48.9681 1Z" stroke="#00999A" stroke-width="2" stroke-linecap="round" stroke-linejoin="round"/>
<path d="M33.9547 18.4125L31.3804 8.99463H4.19824L8.99509 26.5831H21.7867" stroke="#00999A" stroke-width="2" stroke-linecap="round" stroke-linejoin="round"/>
<path d="M59.9691 23.3854C59.3774 20.5872 58.3701 15.3906 52.518 15.3906H48.2488C46.0902 15.3906 44.0275 16.1901 42.4606 17.5972L36.9762 23.0336C36.9762 23.0336 31.7956 24.0889 29.8129 24.4567C27.7822 24.8404 26.583 26.1355 26.583 28.1662C26.583 30.1969 28.166 31.3641 30.5164 31.3641H38.5751L45.2907 27.9104" stroke="#00999A" stroke-width="2" stroke-linecap="round" stroke-linejoin="round"/>
<path d="M43.9486 28.6299L45.7714 36.1929C45.7714 36.1929 40.4629 38.0477 38.5282 38.7672C36.6094 39.4867 35.1704 40.6859 34.4668 42.8605L28.167 58.5782" stroke="#00999A" stroke-width="2" stroke-linecap="round" stroke-linejoin="round"/>
<path d="M65.2468 47.3695H50.9202C49.9129 47.3695 49.1614 46.4421 49.3533 45.4507L53.5105 24.6644C53.6544 23.9129 54.31 23.3853 55.0775 23.3853H69.4041C70.4114 23.3853 71.1629 24.3127 70.971 25.304L66.8138 46.0903C66.6699 46.8418 66.0143 47.3695 65.2468 47.3695Z" stroke="#00999A" stroke-width="2" stroke-linecap="round" stroke-linejoin="round"/>
<path d="M55.3643 47.3694V56.9631" stroke="#00999A" stroke-width="2" stroke-linecap="round" stroke-linejoin="round"/>
<path d="M66.5572 60.161V58.5621L55.3645 56.9631L44.1719 58.5621V60.161" stroke="#00999A" stroke-width="2" stroke-linecap="round" stroke-linejoin="round"/>
<path d="M55.3643 56.9631V60.161" stroke="#00999A" stroke-width="2" stroke-linecap="round" stroke-linejoin="round"/>
<path d="M30.5166 31.3801H1" stroke="#00999A" stroke-width="2" stroke-linecap="round" stroke-linejoin="round"/>
<path d="M8.99512 31.3801V58.5622" stroke="#00999A" stroke-width="2" stroke-linecap="round" stroke-linejoin="round"/>
<path d="M36.1768 58.5621L42.1568 47.5134C42.6525 46.554 43.5959 45.7705 44.5872 45.7705H49.3201" stroke="#00999A" stroke-width="2" stroke-linecap="round" stroke-linejoin="round"/>
</svg>

<svg width="72" height="62" fill="none" xmlns="http://www.w3.org/2000/svg"><path d="M48.968 1c3.534 0 6.396 2.574 6.396 5.756v2.878c0 3.182-2.862 5.756-6.396 5.756s-6.396-2.574-6.396-5.756V6.756C42.572 3.574 45.434 1 48.968 1zM33.955 18.413L31.38 8.995H4.198l4.797 17.588h12.792" stroke="#00999A" stroke-width="2" stroke-linecap="round" stroke-linejoin="round"/><path d="M59.97 23.385c-.593-2.798-1.6-7.994-7.452-7.994h-4.27a8.67 8.67 0 00-5.787 2.206l-5.485 5.437s-5.18 1.055-7.163 1.423c-2.03.383-3.23 1.678-3.23 3.71 0 2.03 1.583 3.197 3.933 3.197h8.06l6.715-3.454" stroke="#00999A" stroke-width="2" stroke-linecap="round" stroke-linejoin="round"/><path d="M43.949 28.63l1.822 7.563s-5.308 1.855-7.243 2.574c-1.919.72-3.358 1.919-4.061 4.093l-6.3 15.718m37.08-11.208H50.92c-1.007 0-1.759-.928-1.567-1.92l4.157-20.786a1.58 1.58 0 011.568-1.279h14.326c1.007 0 1.759.928 1.567 1.919L66.814 46.09a1.58 1.58 0 01-1.567 1.28zm-9.883 0v9.593m11.193 3.198v-1.599l-11.193-1.599-11.192 1.6v1.598m11.192-3.198v3.198M30.517 31.38H1m7.995 0v27.182" stroke="#00999A" stroke-width="2" stroke-linecap="round" stroke-linejoin="round"/><path d="M36.177 58.562l5.98-11.049c.496-.959 1.439-1.742 2.43-1.742h4.733" stroke="#00999A" stroke-width="2" stroke-linecap="round" stroke-linejoin="round"/></svg>
